X:40
T:GB/7d/40 Crystal Stream 
%%VWML:GB-7d-40-0
F:http://www.vwml.org/record/GB/7d/40
C:Transcribed by Simon Furey and Lewis Jones
L:1/8
M:3/4
I:linebreak $
K:F
cA | F2 FAcd | c4 d2 | G2 G2 c2 | B2 !fermata!A2 (3cde | f2 e2 d2 | c2 AG F2 | d2 cA F2 | G4 AG |$ FGAB ce | f3 e gf | d2 cA BG | EG !fermata!c2 (3CDE | F2 A2 GE | G2 F2 c2 | ed cA BG | F4 |]

